!!!OTL: lilangge
!!!ARE: Asia, China,ÿZhejiang Changhua
!! III, 606
!!!SCT: C2063
!!!YEM: Copyright 1995, estate of Helmut Schaffrath.
**kern
*ICvox
*Ivox
!! Mixed meters:  2/4; 3/4
*M3/4
*k[f#c#]
*D:
{16b
8b
16a
4b
=1
16a
16b
8dd
16b
16dd
16b
16a
=2
8.f#
16e
4f#}
=3
{8a
16f#
16a
8b
16a
16f#
4e
=4
8d
16e
16d
8.B
16A
4B}
=5
*M2/4
{8dd
16b
16a
4b
=6
16a
16b
8dd
16b
16dd
16b
16a
=7
8.f#
16e
4f#}
=8
*M3/4
{16a
16f#
16a
16dd
8b
16a
16f#
8.e
16f#
=9
8a
16f#
16a
8.e
16d
4B}
=10
*M2/4
{16d
8d
16f#
4e
=11
*M3/4
8d
16e
16d
8.B
16A
4B}
=12
*M2/4
{8b
16b
16a
8b
8b
=13
16a
16b
16dd
16dd
16b
16dd
16b
16a
=14
8.f#
16e
4f#}
=15
*M3/4
{16a
16f#
16a
16dd
8b
16a
16f#
8.e
16f#
=16
8a
16f#
16a
8.e
16d
4B}
=17
*M2/4
{16d
8d
16f#
4e
=18
*M3/4
8d
16e
16d
8.B
16A
4B}
=19
*M2/4
{8dd
16b
16a
4b
=20
16a
16b
8dd
16b
16dd
16b
16a
=21
8.f#
16e
4f#}
=22
*M3/4
{16a
16f#
16a
16dd
8b
16a
16f#
8.e
16f#
=23
8a
16f#
16a
8.e
16d
4B}
=24
*M2/4
{16d
8d
16f#
4e
=25
*M3/4
8d
16e
16d
8.B
16A
4B}
=26
*M2/4
{8dd
16b
16a
8b
8b
=27
16a
16b
16dd
16dd
16b
16dd
16b
16a
=28
8.dd
16ee
[4ff#
=29
2ff#]}
=30
*M3/4
{16a
16f#
16a
16dd
8b
16a
16f#
8.e
16f#
=31
16a
16b
16dd
16ff#
8.ee
16dd
4b}
=32
*M2/4
{16dd
8dd
16ff#
4ee
=33
8dd
16ee
16ff#
8.b
16a
=34
2b}
==
!!!AGN: Xiaodiao
!!!AMT: irregular
!!!AIN: vox
!!!EED: Helmut Schaffrath
!!!EEV: 1.0
*-
!!!ONB: Tied note syntax fixed by Craig Sapp, 2004/05/03/
